images/wheel-big.svg

<svg width="137" height="138" viewBox="0 0 137 138" fill="none" xmlns="http://www.w3.org/2000/svg">
<path d="M27.7946 102.346C22.8947 104.835 16.7116 102.541 14.0284 97.2325C11.3257 91.9243 13.1145 85.5856 18.0338 83.0968C18.2866 82.9607 18.5393 82.8635 18.8116 82.7468C17.8977 79.8108 17.2172 76.8359 16.7505 73.8805C16.4783 73.8805 16.1866 73.8805 15.895 73.8416C10.2952 73.336 5.84254 68.2029 5.95921 62.3503C6.07588 56.4977 10.7035 52.1618 16.3033 52.6673C16.595 52.6867 16.8866 52.7451 17.1783 52.784C17.7616 49.8868 18.5588 47.048 19.5699 44.3065C19.3171 44.1509 19.0643 43.9954 18.8116 43.8204C14.0284 40.4566 12.4923 33.8457 15.3895 29.0236C18.2866 24.2016 24.528 23.0155 29.3112 26.3793C29.564 26.5543 29.7973 26.7293 30.0112 26.9237C31.8972 24.8238 33.9777 22.8988 36.2332 21.1295C36.0776 20.8767 35.9221 20.6045 35.786 20.3323C33.0833 15.0241 29.564 9.21042 34.5027 6.79939C45.9551 1.21902 50.8549 6.00219 53.5576 11.3103C53.6937 11.5826 53.8104 11.8742 53.927 12.1464C56.6881 11.3687 59.4685 10.8437 62.2684 10.552C62.249 10.2604 62.2296 9.96873 62.249 9.65763C62.3657 3.80504 60.6352 0.635701 66.2544 0.538482C78.504 0.305157 82.6455 5.61331 82.5289 11.4659C82.5289 11.777 82.49 12.0686 82.4705 12.3603C85.2704 13.1575 88.0315 14.188 90.7147 15.4324C90.8508 15.1797 90.9675 14.9075 91.123 14.6547C94.0202 9.83262 100.262 8.64654 105.045 12.0103C109.828 15.3741 111.364 21.985 108.467 26.8071C108.311 27.0598 108.156 27.2931 107.981 27.507C110.1 29.6264 112.083 31.9402 113.931 34.4096C114.164 34.254 114.417 34.1179 114.669 33.9818C119.569 31.493 125.752 33.7874 128.436 39.0955C131.138 44.4037 129.35 50.7424 124.43 53.2312C124.177 53.3673 123.925 53.4645 123.652 53.5811C124.566 56.5172 125.247 59.4921 125.714 62.4475C125.986 62.4475 126.277 62.4475 126.569 62.4864C132.169 62.992 136.622 68.1251 136.505 73.9777C136.388 79.8303 131.761 84.1662 126.161 83.6607C125.869 83.6413 125.577 83.5829 125.286 83.544C124.702 86.4412 123.905 89.28 122.894 92.0215C123.147 92.1771 123.4 92.3326 123.652 92.5076C128.436 95.8714 129.972 102.482 127.075 107.304C124.177 112.126 114.572 114.362 109.77 110.999C109.517 110.824 112.667 109.579 112.433 109.404C110.547 111.504 108.467 113.429 106.211 115.199C106.367 115.451 106.523 115.724 106.659 115.996C109.361 121.304 107.572 127.643 102.653 130.131C97.7534 132.62 91.5702 130.326 88.887 125.018C88.7509 124.745 88.6342 124.454 88.5176 124.182C85.7565 124.959 82.9761 125.484 80.1762 125.776C80.1956 126.068 80.2151 126.359 80.1956 126.67C80.079 132.523 75.4513 136.859 69.8515 136.353C64.2517 135.848 59.7991 130.715 59.9157 124.862C59.9157 124.551 59.9546 124.259 59.9741 123.968C57.1741 123.17 54.4132 122.14 51.7299 120.896C51.5938 121.148 51.4771 121.421 51.3216 121.673C48.4244 126.495 42.183 127.681 37.3998 124.318C32.6166 120.954 31.0806 114.343 33.9777 109.521C34.1333 109.268 34.2888 109.035 34.4638 108.821C32.3444 106.702 30.3612 104.388 28.514 101.918C28.2807 102.055 28.0473 102.21 27.7946 102.346ZM88.9842 103.104C106.814 94.0631 113.308 71.0806 103.509 51.7729C93.709 32.4652 71.3098 24.1627 53.4993 33.2235C35.6693 42.2649 29.1751 65.2474 38.9748 84.5551C48.7744 103.863 71.1543 112.165 88.9842 103.104Z" fill="url(#paint0_linear_39_3406)"/>
<path d="M15.8755 73.8417C10.2757 73.3361 5.8231 68.203 5.93977 62.3504C6.05643 56.4978 10.684 52.1618 16.2839 52.6674C16.5755 52.6868 16.8672 52.7452 17.1588 52.784C17.7421 49.8869 18.5394 47.0481 19.5504 44.3066C19.2977 44.151 19.0449 43.9955 18.7921 43.8205C14.0089 40.4567 8.07857 32.3486 11.4618 27.8571C17.8782 19.3213 24.5086 23.0156 29.3112 26.3794C29.564 26.5544 29.7973 26.7294 30.0112 26.9238C31.8972 24.8239 33.9777 22.8989 36.2332 21.1295C36.0776 20.8768 35.9221 20.6046 35.786 20.3323C34.3083 17.4352 34.1916 14.2464 35.1638 11.5438C39.7914 19.6907 44.3607 27.8765 48.8328 36.1013C34.6194 46.5231 30.0889 67.0558 38.9748 84.5552C46.4995 99.3908 61.4712 107.713 76.093 106.682C76.7541 108.374 77.3763 110.065 78.0762 111.757C79.9623 116.307 82.1205 120.76 84.2788 125.193C82.9177 125.446 81.5567 125.64 80.1956 125.795C80.2151 126.087 80.2345 126.379 80.2151 126.69C80.0984 132.542 76.5402 137.501 66.3905 136.976C60.7712 136.684 59.8185 130.734 59.9352 124.882C59.9352 124.571 59.9741 124.279 59.9935 123.987C57.1936 123.19 54.4326 122.16 51.7493 120.915C51.6132 121.168 51.4966 121.44 51.341 121.693C48.4439 126.515 38.372 128.557 33.5888 125.193C28.8057 121.829 31.1 114.343 33.9972 109.521C34.1527 109.268 34.3083 109.035 34.4832 108.821C32.3639 106.702 30.3806 104.388 28.5335 101.919C28.3001 102.074 28.0473 102.21 27.7946 102.346C22.8947 104.835 16.7116 102.541 14.0284 97.2326C11.3257 91.9244 13.1145 85.5857 18.0338 83.0969C18.2866 82.9608 18.5393 82.8636 18.8116 82.7469C17.8977 79.8109 17.2172 76.836 16.7505 73.8806C16.4589 73.8806 16.1672 73.8806 15.8755 73.8417Z" fill="url(#paint1_linear_39_3406)"/>
<path d="M22.506 102.93C17.6062 105.418 11.423 103.124 8.7398 97.8158C6.03712 92.5077 7.82597 86.169 12.7452 83.6802C12.998 83.5441 13.2508 83.4468 13.523 83.3302C12.6091 80.3942 11.9286 77.4193 11.4619 74.4638C11.1897 74.4638 10.8981 74.4638 10.6064 74.4249C5.00661 73.9194 0.55397 68.7862 0.670624 62.9336C0.787292 57.0811 5.41492 52.7451 11.0147 53.2506C11.3064 53.2701 11.5981 53.3284 11.8897 53.3673C12.473 50.4702 13.2702 47.6314 14.2813 44.8898C14.0285 44.7343 13.7758 44.5787 13.523 44.4037C8.73982 41.0399 7.20374 34.429 10.1009 29.607C12.998 24.7849 19.2395 23.5989 24.0226 26.9626C24.2754 27.1376 24.5087 27.3126 24.7226 27.5071C26.6087 25.4071 28.6891 23.4822 30.9446 21.7128C30.7891 21.46 30.6335 21.1878 30.4974 20.9156C27.7947 15.6074 29.5835 9.26878 34.5028 6.77997C39.4027 4.29117 45.5858 6.58553 48.269 11.8937C48.4052 12.1659 48.5218 12.4576 48.6385 12.7298C51.3995 11.952 54.18 11.427 56.9799 11.1354C56.9604 10.8437 56.941 10.5521 56.9604 10.241C57.0771 4.38838 61.7047 0.0524215 67.3045 0.55796C72.9043 1.0635 77.357 6.19666 77.2403 12.0492C77.2403 12.3603 77.2014 12.652 77.182 12.9436C79.9819 13.7408 82.7429 14.7714 85.4261 16.0158C85.5622 15.763 85.6789 15.4908 85.8345 15.238C88.7316 10.416 94.973 9.22989 99.7562 12.5937C104.539 15.9574 106.075 22.5683 103.178 27.3904C103.023 27.6432 102.867 27.8765 102.692 28.0904C104.812 30.2097 106.795 32.5236 108.642 34.9929C108.875 34.8374 109.128 34.7013 109.381 34.5651C114.281 32.0763 120.464 34.3707 123.147 39.6789C125.85 44.987 124.061 51.3257 119.142 53.8145C118.889 53.9506 118.636 54.0478 118.364 54.1645C119.278 57.1005 119.958 60.0754 120.425 63.0309C120.697 63.0309 120.989 63.0309 121.28 63.0698C126.88 63.5753 131.333 68.7085 131.216 74.561C131.1 80.4136 126.472 84.7496 120.872 84.244C120.581 84.2246 120.289 84.1663 119.997 84.1274C119.414 87.0245 118.617 89.8633 117.606 92.6049C117.858 92.7604 118.111 92.916 118.364 93.091C123.147 96.4548 124.683 103.066 121.786 107.888C118.889 112.71 112.647 113.896 107.864 110.532C107.612 110.357 107.378 110.182 107.164 109.988C105.278 112.088 103.198 114.012 100.942 115.782C101.098 116.035 101.253 116.307 101.389 116.579C104.092 121.887 102.303 128.226 97.3841 130.715C92.4842 133.204 86.3011 130.909 83.6179 125.601C83.4818 125.329 83.3651 125.037 83.2484 124.765C80.4874 125.543 77.7069 126.068 74.907 126.359C74.9265 126.651 74.9459 126.943 74.9265 127.254C74.8098 133.106 70.1822 137.442 64.5824 136.937C58.9826 136.431 54.53 131.298 54.6466 125.445C54.6466 125.134 54.6855 124.843 54.7049 124.551C51.905 123.754 49.144 122.723 46.4608 121.479C46.3247 121.732 46.208 122.004 46.0524 122.257C43.1553 127.079 36.9139 128.265 32.1307 124.901C27.3475 121.537 25.8115 114.926 28.7086 110.104C28.8641 109.852 29.0197 109.618 29.1947 109.404C27.0753 107.285 25.092 104.971 23.2449 102.502C23.0116 102.657 22.7588 102.813 22.506 102.93ZM83.6956 103.707C101.526 94.6659 108.02 71.6834 98.2202 52.3757C88.4205 33.068 66.0212 24.7655 48.2107 33.8263C30.3807 42.8676 23.8865 65.8502 33.6862 85.1579C43.4859 104.446 65.8851 112.768 83.6956 103.707Z" fill="url(#paint2_linear_39_3406)"/>
<defs>
<linearGradient id="paint0_linear_39_3406" x1="55.5847" y1="-35.8566" x2="99.3451" y2="254.875" gradientUnits="userSpaceOnUse">
<stop stop-color="#444B8C"/>
<stop offset="0.9964" stop-color="#26264F"/>
</linearGradient>
<linearGradient id="paint1_linear_39_3406" x1="26.1926" y1="-31.4324" x2="69.953" y2="259.299" gradientUnits="userSpaceOnUse">
<stop stop-color="#444B8C"/>
<stop offset="0.9964" stop-color="#26264F"/>
</linearGradient>
<linearGradient id="paint2_linear_39_3406" x1="14.5442" y1="133.902" x2="202.28" y2="-103.896" gradientUnits="userSpaceOnUse">
<stop stop-color="#826F8C"/>
<stop offset="0.9964" stop-color="#446381"/>
</linearGradient>
</defs>
</svg>

<svg width="137" height="138" fill="none" xmlns="http://www.w3.org/2000/svg"><path d="M27.795 102.346c-4.9 2.489-11.083.195-13.767-5.114-2.702-5.308-.914-11.646 4.006-14.135.253-.136.505-.233.778-.35a62.855 62.855 0 01-2.062-8.867c-.272 0-.563 0-.855-.038-5.6-.506-10.052-5.64-9.936-11.492.117-5.852 4.745-10.188 10.344-9.683.292.02.584.078.875.117a57.05 57.05 0 012.392-8.477 16.375 16.375 0 01-.758-.487c-4.784-3.363-6.32-9.974-3.423-14.796 2.898-4.822 9.139-6.009 13.922-2.645.253.175.486.35.7.545a48.892 48.892 0 016.222-5.794 10.515 10.515 0 01-.447-.798C33.083 15.024 29.564 9.21 34.503 6.8c11.452-5.58 16.352-.797 19.055 4.511.136.273.252.564.369.836a49.694 49.694 0 018.341-1.594c-.019-.292-.038-.583-.019-.894.117-5.853-1.614-9.022 4.005-9.12C78.504.305 82.645 5.613 82.53 11.466c0 .311-.039.603-.058.894a56.2 56.2 0 018.244 3.072c.136-.252.252-.524.408-.777 2.897-4.822 9.139-6.008 13.922-2.645 4.783 3.364 6.319 9.975 3.422 14.797a6.418 6.418 0 01-.486.7 63.895 63.895 0 015.95 6.903c.233-.156.486-.292.738-.428 4.9-2.489 11.083-.195 13.767 5.114 2.702 5.308.914 11.646-4.006 14.135-.253.136-.505.233-.778.35a62.891 62.891 0 012.062 8.866c.272 0 .563 0 .855.04 5.6.505 10.053 5.638 9.936 11.49-.117 5.853-4.744 10.19-10.344 9.684-.292-.02-.584-.078-.875-.117a57.148 57.148 0 01-2.392 8.478c.253.155.506.31.758.486 4.784 3.363 6.32 9.974 3.423 14.796-2.898 4.822-12.503 7.058-17.305 3.695-.253-.175 2.897-1.42 2.663-1.595a48.908 48.908 0 01-6.222 5.795c.156.252.312.525.448.797 2.702 5.308.913 11.647-4.006 14.135-4.9 2.489-11.083.195-13.766-5.113-.136-.273-.253-.564-.37-.836a49.794 49.794 0 01-8.34 1.594c.019.292.038.583.019.894-.117 5.853-4.745 10.189-10.344 9.683-5.6-.505-10.053-5.638-9.936-11.491 0-.311.039-.603.058-.894a56.337 56.337 0 01-8.244-3.072c-.136.252-.253.525-.408.777-2.898 4.822-9.139 6.008-13.922 2.645-4.783-3.364-6.32-9.975-3.422-14.797.155-.253.31-.486.486-.7a63.67 63.67 0 01-5.95-6.903c-.233.137-.467.292-.72.428zm61.19.758c17.829-9.04 24.323-32.023 14.524-51.331-9.8-19.308-32.2-27.61-50.01-18.55-17.83 9.042-24.324 32.024-14.524 51.332 9.8 19.308 32.18 27.61 50.01 18.549z" fill="url(#paint0_linear_39_3406)"/><path d="M15.876 73.842c-5.6-.506-10.053-5.639-9.936-11.492.116-5.852 4.744-10.188 10.344-9.683.292.02.583.078.875.117a57.064 57.064 0 012.391-8.477c-.252-.156-.505-.312-.758-.486-4.783-3.364-10.713-11.472-7.33-15.964 6.416-8.536 13.047-4.841 17.85-1.478.252.175.485.35.7.545a48.9 48.9 0 016.221-5.794 10.476 10.476 0 01-.447-.798c-1.478-2.897-1.594-6.086-.622-8.788A1515.39 1515.39 0 0148.833 36.1c-14.214 10.422-18.744 30.955-9.858 48.454 7.524 14.836 22.496 23.158 37.118 22.127.661 1.692 1.283 3.383 1.983 5.075 1.886 4.55 4.045 9.003 6.203 13.436a58.586 58.586 0 01-4.083.602c.02.292.038.584.02.895-.118 5.852-3.676 10.811-13.825 10.286-5.62-.292-6.573-6.242-6.456-12.094 0-.311.04-.603.058-.895a56.112 56.112 0 01-8.244-3.072c-.136.253-.252.525-.408.778-2.897 4.822-12.969 6.864-17.752 3.5-4.783-3.364-2.489-10.85.408-15.672a6.4 6.4 0 01.486-.7 63.753 63.753 0 01-5.95-6.902c-.233.155-.486.291-.738.427-4.9 2.489-11.083.195-13.767-5.113-2.702-5.309-.914-11.647 4.006-14.136.253-.136.505-.233.778-.35a62.855 62.855 0 01-2.062-8.866c-.291 0-.583 0-.874-.04z" fill="url(#paint1_linear_39_3406)"/><path d="M22.506 102.93c-4.9 2.488-11.083.194-13.766-5.114-2.703-5.308-.914-11.647 4.005-14.136.253-.136.506-.233.778-.35a62.853 62.853 0 01-2.061-8.866c-.272 0-.564 0-.856-.04-5.6-.505-10.052-5.638-9.935-11.49.116-5.853 4.744-10.189 10.344-9.683.291.02.583.077.875.116a57.057 57.057 0 012.391-8.477 16.475 16.475 0 01-.758-.486c-4.783-3.364-6.32-9.975-3.422-14.797 2.897-4.822 9.138-6.008 13.922-2.644.252.175.486.35.7.544a48.9 48.9 0 016.222-5.794 10.55 10.55 0 01-.448-.797c-2.702-5.309-.913-11.647 4.006-14.136 4.9-2.489 11.083-.194 13.766 5.114.136.272.253.564.37.836a49.672 49.672 0 018.34-1.595c-.019-.291-.038-.583-.019-.894C57.077 4.388 61.705.052 67.305.558c5.6.505 10.052 5.639 9.935 11.491 0 .311-.039.603-.058.895a56.2 56.2 0 018.244 3.072c.136-.253.253-.525.409-.778 2.897-4.822 9.138-6.008 13.921-2.644 4.783 3.363 6.319 9.974 3.422 14.796a6.274 6.274 0 01-.486.7 63.672 63.672 0 015.95 6.903c.233-.156.486-.292.739-.428 4.9-2.489 11.083-.194 13.766 5.114 2.703 5.308.914 11.647-4.005 14.136-.253.136-.506.233-.778.35a62.88 62.88 0 012.061 8.866c.272 0 .564 0 .855.039 5.6.505 10.053 5.639 9.936 11.491-.116 5.853-4.744 10.189-10.344 9.683-.291-.02-.583-.078-.875-.117a57.031 57.031 0 01-2.391 8.478c.252.155.505.311.758.486 4.783 3.364 6.319 9.975 3.422 14.797-2.897 4.822-9.139 6.008-13.922 2.644a6.842 6.842 0 01-.7-.544 48.9 48.9 0 01-6.222 5.794c.156.253.311.525.447.797 2.703 5.308.914 11.647-4.005 14.136-4.9 2.489-11.083.194-13.766-5.114-.136-.272-.253-.564-.37-.836a49.59 49.59 0 01-8.341 1.594c.02.292.039.584.02.895-.117 5.852-4.745 10.188-10.345 9.683-5.6-.506-10.052-5.639-9.935-11.492 0-.311.038-.602.058-.894a56.221 56.221 0 01-8.244-3.072c-.136.253-.253.525-.409.778-2.897 4.822-9.138 6.008-13.921 2.644-4.784-3.364-6.32-9.975-3.422-14.797.155-.252.31-.486.486-.7a63.742 63.742 0 01-5.95-6.902 5.706 5.706 0 01-.739.428zm61.19.777c17.83-9.041 24.324-32.024 14.524-51.331-9.8-19.308-32.199-27.61-50.01-18.55-17.83 9.042-24.323 32.024-14.524 51.332 9.8 19.288 32.2 27.61 50.01 18.549z" fill="url(#paint2_linear_39_3406)"/><defs><linearGradient id="paint0_linear_39_3406" x1="55.585" y1="-35.857" x2="99.345" y2="254.875" gradientUnits="userSpaceOnUse"><stop stop-color="#444B8C"/><stop offset=".996" stop-color="#26264F"/></linearGradient><linearGradient id="paint1_linear_39_3406" x1="26.193" y1="-31.432" x2="69.953" y2="259.299" gradientUnits="userSpaceOnUse"><stop stop-color="#444B8C"/><stop offset=".996" stop-color="#26264F"/></linearGradient><linearGradient id="paint2_linear_39_3406" x1="14.544" y1="133.902" x2="202.28" y2="-103.896" gradientUnits="userSpaceOnUse"><stop stop-color="#826F8C"/><stop offset=".996" stop-color="#446381"/></linearGradient></defs></svg>
